X:1
T:Carolan's Welcome
L:1/8
Q:1/4=104
M:3/4
K:G
V:1 treble nm="Carolan's Welcome"
V:1
 z2 E,E GF |: [E,E]B, G>A B2 | [E,E]B, G>A B2 | [F,A]>B AG FE | [A,F]2 [B,D]2 [F,D]2 | %5
 [E,G]2 B,F [G,E]2 | [F,A]2 DG [A,F]2 | [E,G]B [F,A]G [A,F]G | [E,E]2 E,E GF | [E,E]B, G>A B2 | %10
 [E,E]B, G>A B2 | [F,A]>B AG FE | [A,F]2 [B,D]2 [F,D]2 | [B,d]2 A,c [G,B]2 | [Ce]2 B,d [DB]A | %15
 [B,G]B [F,A]G [A,F]G |1 [E,B,E]2 E,E GF :|2 [E,B,E]6 |: [G,B]2 [Ce]f [Eg]2 | %19
 [G,B]2 [F,e]f [E,g]2 | [B,Eg]f ed ef | [B,g]2 [E,B]2 [G,B]2 | [A,c]2 [Ce]c [G,B][F,A] | %23
 [G,B]2 [B,d][DB] [F,A][E,G] | [F,A]2 [G,B]2 [B,d]2 | [CGce]6 | [A,EAce]d cd e2 | [B,FBd]B AB d2 | %28
 [G,B]A [E,G][F,A] [G,B]G | [F,A]2 [A,F]2 [F,D]2 | [E,G]2 B,F [G,E]2 | [F,A]2 DG [A,F]2 | %32
 [E,G]B [F,A]G [A,F]G | [E,B,E]6 :| %34

